!! 00000] TT[00
!!!OTL: Fengshou changtou qian zhi ge
!!!ARE: Asia, China,ÿJiangsu, Jingjiang
!! Ethnic Group: Han
!! III, 450
!!!SCT: C0322
!!!YEM: Copyright 1995, estate of Helmut Schaffrath.
**kern
*ICvox
*Ivox
!! Mixed meters:  2/4; 3/4
*M3/4
*k[]
*C:
{8.dd
16dd
8dd
8dd
=1
8cc
8dd
16dd
16cc
8a
=2
4dd
8dd
8a
=3
8cc
8dd
16dd
16cc
8a}
=4
{8.dd
16dd
8dd
8dd
=5
16dd
16ee
8a
8g
8g
=6
8g
8a
4dd
=7
16cc
16dd
16cc
16a
4g
8g
8r}
=8
*M2/4
{8dd
16dd
16dd
8dd
8dd
=9
8cc
8dd
16dd
16cc
8a
=10
4dd
8dd
8a
=11
8cc
8dd
16dd
16cc
8a}
=12
{8.dd
16dd
8dd
8dd
=13
16dd
16ee
8a
8g
8g
=14
8g
8a
4dd
=15
16cc
16dd
16cc
16a
4g
8g
8r}
==
!!!AGN: Haozi, Lianjia Haozi. Xin minge
!! um die Arbeit zu koordinieren. Beschreibung der Stadt Wuxi.
!!    Intonation des Sprachrhythmus nicht aufgezeichnet:
!!    x_x_x_x_  x_x_x_x_  x_x_x_x_  x_x_x_x_
!!    x_xxx_x_  x_x_x_x_  x_x_x_x_  x_x_x_x_
!!!ONB: ESAC (Essen Associative Code) Database: CHINA
!!!AMT: irregular
!!!AIN: vox
!!!EED: Helmut Schaffrath
!!!EEV: 1.0
*-
